X: 1
T: Lillias, The
M: 6/8
L: 1/8
R: jig
K: Gmaj
~B3 ABc | BAG AGE | ADD BDc- | c2 B AGD |
~B3 ABc | dcB AGE | ADD BDc  |[1 AGF G3 :|[2 AGF GBd ||
|: ~g3 fga | gdB GBg | ABA a2 g | fgf def |
~g3 bgb | fge dBG | ADD BDc | AGF G3 :|
